assets/images/pound.svg

<svg id="Capa_1" enable-background="new 0 0 448.941 448.941" height="512" viewBox="0 0 448.941 448.941" width="512" xmlns="http://www.w3.org/2000/svg"><path d="m392.824 140.294v-14.029c0-69.627-56.639-126.265-126.265-126.265s-126.265 56.638-126.265 126.265v98.206h-84.176v56.118h80.868c-6.576 44.438-22.877 86.906-48.096 124.73-5.741 8.604-6.275 19.674-1.397 28.799 4.891 9.125 14.399 14.824 24.743 14.824h252.529v-56.118h-204.249c17.078-35.365 28.03-73.228 32.892-112.235h87.18v-56.118h-84.176v-98.206c0-38.677 31.47-70.147 70.147-70.147s70.147 31.47 70.147 70.147v14.029z"/></svg>

<svg xmlns="http://www.w3.org/2000/svg" width="336.706" height="448.942" viewBox="0 0 336.706 448.942">
  <path id="pound" d="M392.824,140.294V126.265a126.265,126.265,0,1,0-252.53,0v98.206H56.118v56.118h80.868a304.953,304.953,0,0,1-48.1,124.73,28.057,28.057,0,0,0,23.346,43.623H364.765V392.824H160.516a360.078,360.078,0,0,0,32.892-112.235h87.18V224.471H196.412V126.265a70.147,70.147,0,1,1,140.294,0v14.029Z" transform="translate(-56.118)" fill="#fff"/>
</svg>
